X:1
T:Mrs. C. H. Morris
T:Mrs. C. H. M.
T:I Love Him So
%%score { ( 1 2 ) | ( 3 4 ) }
L:1/8
M:6/8
K:Ab
V:1 treble 
V:2 treble 
V:3 bass 
V:4 bass 
V:1
{/x} E | EcB AGF | ECF E2 E | EBA G2 E | EcB A2 c | cAF A2 G | F3- F2 F | EBA GFE | AGF E2 E | %9
w: It|was * be\- cause * He|loved * me so, When|lost * in sin and|steeped * in woe, Christ|did * for me a\-|tone; * He|cast * a pity\- * ing|glance * on me And|
w: He|washed * my sin\- * stains|all * a- way, *||||||heart * was stilled, The|
w: In|lov\- * ing\- kind\- * ness|none * can tell He|deigns * with- in my|heart * to dwell, This|Friend * * * *||||
 Edc B2 E | EcB A2 f | ecA E2 B | A3- A2"^Chorus" e | e>fe edG | c2 B A2 c | Bcd eBA | G2 F E2 e | %17
w: said, * "My child, I|died * for thee, To|claim * thee for My|own." * I|love * Him so, * I|love Him so, I|want * the * whole wide|world to know The|
w: ach\- * ing void His|pre\- * sence filled And|ful * ly sat- is-|fied. * *|||||
w: ||||||||
 e>fe edG | c2 B A2 =d | e2 c ecA | dcB A2 |] %21
w: full\- * ness of * His|grace di\- vine, Since|I am His * and|He * is mine.|
w: ||||
w: ||||
V:2
 C | CED CED | CA,D C2 E | E2 E E2 D | DEG E2 E | F2 F F2 =E | C3- C2 C | D2 D D2 D | CED C2 E | %9
w: |||||||||
w: ||* * * * And|turned my night to|bright * noon\- day By|His own blood ap\-|plied; * The|long\- ing in my||
w: |||||* so kind and|true: * I|want the whole wide|world * to know My|
 E2 E E2 D | CED C2 A | A2 E CB,D | C3- C2 A | G2 G AGE | G2 G E2 A | A2 A G2 F | E2 =D E2 G | %17
w: ||||||||
w: ||||||||
w: Sav\- ior who has|charmed * me so, Then|they will love * Him,|too. * *|||||
 G2 G AGE | G2 G F2 A | A2 A A2 E | E2 E E2 |] %21
w: ||||
w: ||||
w: ||||
V:3
 A, | A,2 E, E,F,G, | A,E,A, A,2 C | D2 C B,2 G, | G,A,D C2 A, | A,CA, C2 B, | A,3- A,2 z | %7
 G,A,B, A,G,E, | E,F,G, A,2 C | CB,A, G,2 G, | A,2 G, A,2 =B, | CA,C A,G,E, | E,3- E,2 C | %13
 D2 B, CB,B, | E2 D C2 E | D2 B, B,2 C | B,2 A, G,2 B, | D2 B, CB,B, | E2 D C2 =B, | C2 A, CA,C | %20
 B,A,D C2 |] %21
V:4
 A,, | A,,2 A,, A,,2 A,, | A,,2 A,, A,,2 A,, | E,2 E, E,2 E, | E,2 E, A,2 A, | F,2 F, C,2 C, | %6
 F,3- F,2 [F,A,] | E,2 E, E,2 E, | A,,2 A,, A,,2 A,, | E,2 E, E,2 E, | E,2 =E, A,2 =D, | %11
 E,2 E, E,2 E, | A,,3 A,,2 A, | E,2 E, E,2 E, | E,2 E, A,2 A, | B,2 F, E,2 A, | B,2 B,, E,2 E, | %17
 E,2 E, E,2 E, | E,2 E, F,2 F, | E,2 E, E,2 E, | E,2 E, A,,2 |] %21

